;FLAVOR:Marlin
M117 Time Left 1h24m50s
;TIME:5090
;Filament used: 2.04785m
;Layer height: 0.12
;MINX:86.45
;MINY:77.55
;MINZ:0.12
;MAXX:148.55
;MAXY:149.05
;MAXZ:15
;POSTPROCESSED
;Generated with Cura_SteamEngine 5.2.1
M140 S60
M105
M190 S60
M104 S205
M105
M109 S205
M82 ;absolute extrusion mode
; Ender 3 Custom Start G-code
G92 E0 ; Reset Extruder
G28 ; Home all axes
G1 Z2.0 F3000 ; Move Z Axis up little to prevent scratching of Heat Bed
G1 X0.1 Y20 Z0.3 F5000.0 ; Move to start position
G1 X0.1 Y200.0 Z0.3 F1500.0 E15 ; Draw the first line
G1 X0.4 Y200.0 Z0.3 F5000.0 ; Move to side a little
G1 X0.4 Y20 Z0.3 F1500.0 E30 ; Draw the second line
G92 E0 ; Reset Extruder
G1 Z2.0 F3000 ; Move Z Axis up little to prevent scratching of Heat Bed
G1 X5 Y20 Z0.3 F5000.0 ; Move over to prevent blob squish
G92 E0
G92 E0
G1 F2700 E-5
;LAYER_COUNT:125
;LAYER:0
M107
M204 S500
M205 X12 Y12
G0 F6000 X90.691 Y82.749 Z0.12
;TYPE:SKIRT
G1 F2700 E0
G1 F1200 X91.311 Y82.116 E0.01764
G1 X91.738 Y81.713 E0.02933
G1 X92.703 Y80.901 E0.05443
G1 X92.969 Y80.702 E0.06104
G1 X93.606 Y80.259 E0.07649
G1 X94.058 Y79.968 E0.08719
G1 X94.926 Y79.464 E0.10717
G1 X95.198 Y79.322 E0.11328
G1 X95.985 Y78.95 E0.13061
G1 X96.469 Y78.744 E0.14108
G1 X97.443 Y78.382 E0.16176
G1 X97.801 Y78.268 E0.16924
G1 X98.664 Y78.031 E0.18706
G1 X99.144 Y77.92 E0.19686
G1 X100.163 Y77.734 E0.21748
G1 X100.565 Y77.68 E0.22556
G1 X101.412 Y77.6 E0.24249
G1 X102.017 Y77.57 E0.25455
G1 X102.904 Y77.55 E0.27221
G1 X131.951 Y77.551 E0.85043
G1 X132.79 Y77.563 E0.86713
G1 X133.554 Y77.597 E0.88235
G1 X134.264 Y77.662 E0.89655
G1 X134.707 Y77.717 E0.90543
G1 X135.689 Y77.884 E0.92526
G1 X136.067 Y77.966 E0.93296
G1 X136.95 Y78.196 E0.95112
G1 X137.448 Y78.348 E0.96149
G1 X138.431 Y78.7 E0.98227
G1 X138.749 Y78.831 E0.98912
G1 X139.471 Y79.159 E1.0049
G1 X139.854 Y79.35 E1.01342
G1 X140.729 Y79.837 E1.03336
G1 X141.116 Y80.076 E1.04241
G1 X141.971 Y80.661 E1.06303
G1 X142.38 Y80.97 E1.07324
G1 X143.187 Y81.643 E1.09416
G1 X143.44 Y81.875 E1.10099
G1 X144.053 Y82.482 E1.11816
G1 X144.413 Y82.868 E1.12867
G1 X145.086 Y83.661 E1.14937
G1 X145.294 Y83.931 E1.15616
G1 X145.816 Y84.67 E1.17417
G1 X146.117 Y85.135 E1.18519
G1 X146.65 Y86.053 E1.20633
G1 X146.803 Y86.348 E1.21294
G1 X147.136 Y87.049 E1.22839
G1 X147.328 Y87.493 E1.23802
G1 X147.731 Y88.576 E1.26102
G1 X147.845 Y88.94 E1.26861
G1 X148.064 Y89.744 E1.2852
G1 X148.178 Y90.235 E1.29524
G1 X148.366 Y91.265 E1.31608
G1 X148.419 Y91.66 E1.32401
G1 X148.498 Y92.482 E1.34045
G1 X148.529 Y93.082 E1.35241
G1 X148.55 Y93.943 E1.36955
G1 X148.549 Y98.063 E1.45157
G1 X148.537 Y98.908 E1.46839
G1 X148.501 Y99.701 E1.48419
G1 X148.444 Y100.331 E1.49678
G1 X148.325 Y101.325 E1.51671
G1 X148.144 Y102.673 E1.54379
G1 X147.874 Y105.222 E1.59481
G1 X147.683 Y107.7 E1.64428
G1 X147.56 Y110.216 E1.69443
G1 X147.508 Y112.737 E1.74462
G1 X147.528 Y115.259 E1.79483
G1 X147.619 Y117.778 E1.845
G1 X147.779 Y120.268 E1.89467
G1 X148.009 Y122.744 E1.94417
G1 X148.298 Y125.019 E1.98982
G1 X148.442 Y126.237 E2.01424
G1 X148.501 Y126.915 E2.02778
G1 X148.53 Y127.516 E2.03976
G1 X148.55 Y128.403 E2.05742
G1 X148.549 Y132.463 E2.13824
G1 X148.537 Y133.308 E2.15507
G1 X148.501 Y134.101 E2.17087
G1 X148.428 Y134.863 E2.18611
G1 X148.371 Y135.299 E2.19486
G1 X148.203 Y136.254 E2.21416
G1 X148.124 Y136.611 E2.22144
G1 X147.914 Y137.417 E2.23802
G1 X147.767 Y137.904 E2.24815
G1 X147.4 Y138.932 E2.26987
G1 X147.264 Y139.261 E2.27696
G1 X146.914 Y140.025 E2.29369
G1 X146.684 Y140.48 E2.30384
G1 X146.151 Y141.418 E2.32531
G1 X145.951 Y141.733 E2.33274
G1 X145.468 Y142.433 E2.34967
G1 X145.182 Y142.815 E2.35917
G1 X144.54 Y143.595 E2.37928
G1 X144.309 Y143.851 E2.38614
G1 X143.687 Y144.486 E2.40384
G1 X143.246 Y144.902 E2.41591
G1 X142.22 Y145.759 E2.44252
G1 X141.969 Y145.944 E2.44872
G1 X141.4 Y146.337 E2.46249
G1 X140.947 Y146.629 E2.47322
G1 X140.089 Y147.129 E2.49299
G1 X139.818 Y147.271 E2.49908
G1 X139.016 Y147.651 E2.51674
G1 X138.539 Y147.854 E2.52706
G1 X137.577 Y148.211 E2.54749
G1 X137.211 Y148.328 E2.55514
G1 X136.336 Y148.569 E2.5732
G1 X135.856 Y148.68 E2.58301
G1 X134.837 Y148.866 E2.60363
G1 X134.435 Y148.92 E2.6117
G1 X133.588 Y149 E2.62864
G1 X132.983 Y149.03 E2.6407
G1 X132.096 Y149.05 E2.65836
G1 X103.049 Y149.049 E3.23657
G1 X102.21 Y149.037 E3.25328
G1 X101.447 Y149.003 E3.26848
G1 X100.732 Y148.937 E3.28277
G1 X100.29 Y148.882 E3.29164
G1 X99.311 Y148.716 E3.31141
G1 X98.933 Y148.634 E3.31911
G1 X98.083 Y148.414 E3.33658
G1 X97.596 Y148.267 E3.34671
G1 X96.563 Y147.898 E3.36855
G1 X96.232 Y147.761 E3.37568
G1 X95.473 Y147.413 E3.3923
G1 X95.02 Y147.184 E3.4024
G1 X94.074 Y146.646 E3.42407
G1 X93.758 Y146.445 E3.43152
G1 X93.031 Y145.94 E3.44914
G1 X92.623 Y145.632 E3.45932
G1 X91.811 Y144.956 E3.48035
G1 X91.557 Y144.723 E3.48721
G1 X91.008 Y144.182 E3.50255
G1 X90.716 Y143.874 E3.511
G1 X90.21 Y143.302 E3.5262
G1 X89.956 Y142.994 E3.53415
G1 X89.187 Y141.94 E3.56012
G1 X88.888 Y141.475 E3.57113
G1 X88.408 Y140.654 E3.59006
G1 X88.225 Y140.307 E3.59787
G1 X87.814 Y139.438 E3.617
G1 X87.628 Y138.996 E3.62655
G1 X87.286 Y138.07 E3.6462
G1 X87.173 Y137.716 E3.6536
G1 X86.937 Y136.86 E3.67127
G1 X86.823 Y136.37 E3.68129
G1 X86.63 Y135.308 E3.70277
G1 X86.575 Y134.89 E3.71117
G1 X86.489 Y133.881 E3.73133
G1 X86.458 Y133.09 E3.74708
G1 X86.45 Y132.657 E3.7557
G1 X86.451 Y128.537 E3.83772
G1 X86.463 Y127.692 E3.85454
G1 X86.497 Y126.927 E3.86978
G1 X86.555 Y126.279 E3.88273
G1 X86.675 Y125.275 E3.90286
G1 X86.856 Y123.927 E3.92994
G1 X87.126 Y121.378 E3.98096
G1 X87.317 Y118.9 E4.03043
G1 X87.44 Y116.384 E4.08058
G1 X87.492 Y113.863 E4.13077
G1 X87.472 Y111.341 E4.18098
G1 X87.381 Y108.822 E4.23115
G1 X87.22 Y106.328 E4.2809
G1 X86.989 Y103.831 E4.33082
G1 X86.701 Y101.571 E4.37617
G1 X86.556 Y100.335 E4.40095
G1 X86.498 Y99.668 E4.41427
G1 X86.47 Y99.084 E4.42591
G1 X86.45 Y98.197 E4.44357
G1 X86.451 Y94.137 E4.52439
G1 X86.463 Y93.292 E4.54122
G1 X86.503 Y92.448 E4.55803
G1 X86.575 Y91.709 E4.57282
G1 X86.63 Y91.291 E4.58121
G1 X86.797 Y90.346 E4.60031
G1 X86.876 Y89.989 E4.60759
G1 X87.084 Y89.191 E4.624
G1 X87.23 Y88.706 E4.63409
G1 X87.601 Y87.665 E4.65609
G1 X87.738 Y87.334 E4.66322
G1 X88.095 Y86.559 E4.6802
G1 X88.329 Y86.098 E4.69049
G1 X88.865 Y85.159 E4.71202
G1 X89.062 Y84.85 E4.71931
G1 X89.522 Y84.182 E4.73546
G1 X89.807 Y83.8 E4.74494
G1 X90.46 Y83.005 E4.76542
G1 X90.691 Y82.749 E4.77229
G0 F6000 X91.003 Y83.031
G1 F1200 X91.599 Y82.421 E4.78926
G1 X92.026 Y82.018 E4.80095
G1 X92.954 Y81.237 E4.8251
G1 X93.22 Y81.038 E4.83171
G1 X93.834 Y80.612 E4.84659
G1 X94.286 Y80.321 E4.85729
G1 X95.121 Y79.836 E4.87651
G1 X95.393 Y79.694 E4.88262
G1 X96.149 Y79.336 E4.89927
G1 X96.633 Y79.13 E4.90974
G1 X97.571 Y78.782 E4.92965
G1 X97.929 Y78.668 E4.93713
G1 X98.759 Y78.44 E4.95427
G1 X99.239 Y78.329 E4.96407
G1 X100.219 Y78.151 E4.9839
G1 X100.621 Y78.097 E4.99198
G1 X101.436 Y78.019 E5.00827
G1 X102.028 Y77.99 E5.02007
G1 X102.904 Y77.97 E5.03751
G1 X131.793 Y77.97 E5.61258
G1 X132.784 Y77.983 E5.63231
G1 X133.53 Y78.016 E5.64718
G1 X134.213 Y78.079 E5.66083
G1 X134.656 Y78.134 E5.66972
G1 X135.6 Y78.295 E5.68878
G1 X135.978 Y78.377 E5.69648
G1 X136.827 Y78.598 E5.71394
G1 X137.325 Y78.75 E5.72431
G1 X138.271 Y79.088 E5.74431
G1 X138.589 Y79.219 E5.75115
G1 X139.284 Y79.535 E5.76635
G1 X139.667 Y79.726 E5.77487
G1 X140.508 Y80.195 E5.79404
G1 X140.895 Y80.434 E5.80309
G1 X141.718 Y80.996 E5.82293
G1 X142.127 Y81.305 E5.83313
G1 X142.903 Y81.952 E5.85325
G1 X143.156 Y82.184 E5.86008
G1 X143.746 Y82.769 E5.87662
G1 X144.106 Y83.155 E5.88712
G1 X144.753 Y83.918 E5.90704
G1 X144.961 Y84.188 E5.91382
G1 X145.464 Y84.899 E5.93116
G1 X145.765 Y85.364 E5.94219
G1 X146.277 Y86.246 E5.96249
G1 X146.43 Y86.541 E5.9691
G1 X146.751 Y87.216 E5.98398
G1 X146.943 Y87.66 E5.99361
G1 X147.33 Y88.702 E6.01574
G1 X147.444 Y89.066 E6.02333
G1 X147.655 Y89.839 E6.03928
G1 X147.769 Y90.33 E6.04931
G1 X147.95 Y91.32 E6.06935
G1 X148.003 Y91.715 E6.07728
G1 X148.079 Y92.507 E6.09312
G1 X148.109 Y93.095 E6.10484
G1 X148.13 Y93.943 E6.12173
G1 X148.129 Y98.057 E6.20362
G1 X148.117 Y98.902 E6.22044
G1 X148.081 Y99.675 E6.23585
G1 X148.027 Y100.282 E6.24798
G1 X147.909 Y101.269 E6.26776
G1 X147.725 Y102.639 E6.29528
G1 X147.456 Y105.184 E6.34622
G1 X147.263 Y107.68 E6.39606
G1 X147.14 Y110.188 E6.44604
G1 X147.088 Y112.732 E6.4967
G1 X147.108 Y115.277 E6.54736
G1 X147.198 Y117.785 E6.59731
G1 X147.361 Y120.299 E6.64746
G1 X147.593 Y122.806 E6.69758
G1 X147.88 Y125.068 E6.74297
G1 X148.024 Y126.286 E6.76739
G1 X148.081 Y126.938 E6.78041
G1 X148.11 Y127.528 E6.79217
G1 X148.13 Y128.403 E6.8096
G1 X148.129 Y132.457 E6.89029
G1 X148.117 Y133.302 E6.90712
G1 X148.081 Y134.075 E6.92252
G1 X148.011 Y134.809 E6.9372
G1 X147.954 Y135.245 E6.94595
G1 X147.793 Y136.164 E6.96452
G1 X147.714 Y136.521 E6.9718
G1 X147.512 Y137.296 E6.98775
G1 X147.365 Y137.783 E6.99787
G1 X147.012 Y138.772 E7.01878
G1 X146.876 Y139.101 E7.02586
G1 X146.539 Y139.836 E7.04196
G1 X146.309 Y140.291 E7.05211
G1 X145.796 Y141.193 E7.07276
G1 X145.596 Y141.508 E7.08019
G1 X145.131 Y142.181 E7.09647
G1 X144.845 Y142.563 E7.10597
G1 X144.228 Y143.313 E7.12531
G1 X143.997 Y143.569 E7.13217
G1 X143.399 Y144.181 E7.1492
G1 X142.958 Y144.597 E7.16127
G1 X141.971 Y145.421 E7.18686
G1 X141.72 Y145.606 E7.19307
G1 X141.172 Y145.984 E7.20632
G1 X140.719 Y146.276 E7.21705
G1 X139.894 Y146.757 E7.23606
G1 X139.623 Y146.899 E7.24215
G1 X138.852 Y147.264 E7.25913
G1 X138.375 Y147.467 E7.26945
G1 X137.449 Y147.811 E7.28912
G1 X137.083 Y147.928 E7.29677
G1 X136.241 Y148.16 E7.31415
G1 X135.761 Y148.271 E7.32396
G1 X134.781 Y148.449 E7.34379
G1 X134.379 Y148.503 E7.35186
G1 X133.564 Y148.581 E7.36816
G1 X132.972 Y148.61 E7.37996
G1 X132.096 Y148.63 E7.3974
G1 X103.055 Y148.629 E7.97549
G1 X102.216 Y148.617 E7.9922
G1 X101.472 Y148.584 E8.00702
G1 X100.783 Y148.521 E8.02079
G1 X100.341 Y148.466 E8.02966
G1 X99.4 Y148.305 E8.04866
G1 X99.022 Y148.223 E8.05636
G1 X98.204 Y148.012 E8.07318
G1 X97.717 Y147.865 E8.08331
G1 X96.724 Y147.51 E8.1043
G1 X96.393 Y147.373 E8.11143
G1 X95.662 Y147.038 E8.12744
G1 X95.209 Y146.809 E8.13754
G1 X94.3 Y146.291 E8.15837
G1 X93.984 Y146.09 E8.16582
G1 X93.284 Y145.605 E8.18277
G1 X92.876 Y145.297 E8.19295
G1 X92.095 Y144.646 E8.21319
G1 X91.841 Y144.413 E8.22005
G1 X91.313 Y143.894 E8.23479
G1 X91.021 Y143.586 E8.24324
G1 X90.534 Y143.035 E8.25788
G1 X90.28 Y142.727 E8.26582
G1 X89.54 Y141.713 E8.29081
G1 X89.241 Y141.248 E8.30182
G1 X88.779 Y140.458 E8.32003
G1 X88.596 Y140.111 E8.32784
G1 X88.201 Y139.275 E8.34625
G1 X88.015 Y138.833 E8.35579
G1 X87.686 Y137.942 E8.3747
G1 X87.573 Y137.588 E8.3821
G1 X87.347 Y136.765 E8.39909
G1 X87.233 Y136.275 E8.4091
G1 X87.047 Y135.253 E8.42978
G1 X86.992 Y134.835 E8.43817
G1 X86.909 Y133.864 E8.45757
G1 X86.878 Y133.073 E8.47333
G1 X86.87 Y132.657 E8.48161
G1 X86.871 Y128.543 E8.56351
G1 X86.883 Y127.698 E8.58033
G1 X86.916 Y126.951 E8.59521
G1 X86.972 Y126.328 E8.60767
G1 X87.091 Y125.331 E8.62765
G1 X87.275 Y123.957 E8.65525
G1 X87.544 Y121.416 E8.70611
G1 X87.737 Y118.92 E8.75595
G1 X87.86 Y116.412 E8.80593
G1 X87.912 Y113.868 E8.85658
G1 X87.892 Y111.323 E8.90725
G1 X87.802 Y108.815 E8.9572
G1 X87.639 Y106.301 E9.00735
G1 X87.407 Y103.796 E9.05743
G1 X87.118 Y101.523 E9.10304
G1 X86.973 Y100.287 E9.12781
G1 X86.918 Y99.644 E9.14066
G1 X86.89 Y99.072 E9.15206
G1 X86.87 Y98.197 E9.16948
G1 X86.871 Y94.143 E9.25018
G1 X86.883 Y93.298 E9.26701
G1 X86.923 Y92.475 E9.28341
G1 X86.992 Y91.764 E9.29763
G1 X87.047 Y91.346 E9.30602
G1 X87.207 Y90.436 E9.32441
G1 X87.286 Y90.079 E9.33169
G1 X87.486 Y89.312 E9.34747
G1 X87.632 Y88.827 E9.35755
G1 X87.989 Y87.826 E9.37871
G1 X88.126 Y87.495 E9.38584
G1 X88.469 Y86.749 E9.40218
G1 X88.703 Y86.288 E9.41247
G1 X89.219 Y85.385 E9.43318
G1 X89.416 Y85.076 E9.44047
G1 X89.859 Y84.433 E9.45602
G1 X90.144 Y84.051 E9.4655
G1 X90.772 Y83.287 E9.48519
G1 X91.003 Y83.031 E9.49205
G0 F6000 X91.315 Y83.312
G1 F1200 X91.887 Y82.727 E9.50834
G1 X92.314 Y82.324 E9.52003
G1 X93.206 Y81.574 E9.54323
G1 X93.472 Y81.375 E9.54984
G1 X94.061 Y80.965 E9.56413
G1 X94.513 Y80.674 E9.57483
G1 X95.315 Y80.208 E9.59329
G1 X95.587 Y80.066 E9.5994
G1 X96.314 Y79.723 E9.6154
G1 X96.798 Y79.517 E9.62587
G1 X97.698 Y79.182 E9.64499
G1 X98.056 Y79.068 E9.65247
G1 X98.854 Y78.85 E9.66893
G1 X99.334 Y78.739 E9.67874
G1 X100.275 Y78.567 E9.69778
G1 X100.677 Y78.513 E9.70586
G1 X101.46 Y78.438 E9.72151
G1 X102.04 Y78.41 E9.73307
G1 X102.904 Y78.39 E9.75028
G1 X131.793 Y78.39 E10.32535
G1 X132.778 Y78.403 E10.34496
G1 X133.505 Y78.436 E10.35944
G1 X134.161 Y78.496 E10.37256
G1 X134.604 Y78.551 E10.38144
G1 X135.511 Y78.705 E10.39976
G1 X135.889 Y78.787 E10.40746
G1 X136.705 Y79 E10.42424
G1 X137.203 Y79.152 E10.43461
G1 X138.111 Y79.477 E10.45381
G1 X138.429 Y79.608 E10.46065
G1 X139.097 Y79.911 E10.47525
G1 X139.48 Y80.102 E10.48377
G1 X140.288 Y80.552 E10.50218
G1 X140.675 Y80.791 E10.51124
G1 X141.465 Y81.332 E10.5303
G1 X141.874 Y81.641 E10.5405
G1 X142.619 Y82.262 E10.55981
G1 X142.872 Y82.494 E10.56664
G1 X143.439 Y83.055 E10.58252
G1 X143.799 Y83.441 E10.59303
G1 X144.42 Y84.174 E10.61215
G1 X144.628 Y84.444 E10.61893
G1 X145.111 Y85.127 E10.63559
G1 X145.412 Y85.592 E10.64661
G1 X145.905 Y86.439 E10.66612
G1 X146.058 Y86.734 E10.67274
G1 X146.365 Y87.383 E10.68703
G1 X146.557 Y87.827 E10.69666
G1 X146.929 Y88.828 E10.71791
G1 X147.043 Y89.192 E10.72551
G1 X147.245 Y89.934 E10.74082
G1 X147.359 Y90.425 E10.75085
G1 X147.533 Y91.376 E10.77009
G1 X147.586 Y91.771 E10.77803
G1 X147.66 Y92.532 E10.79325
G1 X147.677 Y92.822 E10.79903
G1 X147.71 Y93.943 E10.82136
G1 X147.709 Y98.051 E10.90313
G1 X147.697 Y98.896 E10.91995
G1 X147.662 Y99.65 E10.93498
G1 X147.61 Y100.232 E10.94661
G1 X147.493 Y101.213 E10.96628
G1 X147.305 Y102.613 E10.99439
G1 X147.041 Y105.107 E11.04432
G1 X146.844 Y107.665 E11.09539
G1 X146.72 Y110.193 E11.14577
G1 X146.668 Y112.727 E11.19622
G1 X146.688 Y115.295 E11.24735
G1 X146.778 Y117.792 E11.29708
G1 X146.944 Y120.362 E11.34835
G1 X147.174 Y122.841 E11.39791
G1 X147.463 Y125.117 E11.44358
G1 X147.607 Y126.335 E11.46799
G1 X147.662 Y126.962 E11.48052
G1 X147.69 Y127.539 E11.49202
G1 X147.71 Y128.403 E11.50923
G1 X147.709 Y132.451 E11.58981
G1 X147.697 Y133.296 E11.60663
G1 X147.662 Y134.05 E11.62165
G1 X147.595 Y134.755 E11.63575
G1 X147.538 Y135.191 E11.6445
G1 X147.383 Y136.073 E11.66233
G1 X147.304 Y136.43 E11.66961
G1 X147.109 Y137.174 E11.68492
G1 X146.962 Y137.661 E11.69505
G1 X146.624 Y138.611 E11.71512
G1 X146.488 Y138.94 E11.7222
G1 X146.164 Y139.646 E11.73767
G1 X145.934 Y140.101 E11.74782
G1 X145.441 Y140.968 E11.76767
G1 X145.241 Y141.283 E11.7751
G1 X144.795 Y141.929 E11.79072
G1 X144.509 Y142.311 E11.80022
G1 X143.916 Y143.032 E11.81881
G1 X143.685 Y143.288 E11.82567
G1 X143.111 Y143.875 E11.84201
G1 X142.67 Y144.291 E11.85408
G1 X141.722 Y145.083 E11.87867
G1 X141.471 Y145.268 E11.88488
G1 X140.945 Y145.631 E11.8976
G1 X140.492 Y145.923 E11.90833
G1 X139.699 Y146.385 E11.9266
G1 X139.428 Y146.527 E11.93269
G1 X138.687 Y146.878 E11.94901
G1 X138.21 Y147.081 E11.95933
G1 X137.321 Y147.411 E11.97821
G1 X136.955 Y147.528 E11.98585
G1 X136.146 Y147.75 E12.00255
G1 X135.666 Y147.861 E12.01236
G1 X134.725 Y148.033 E12.0314
G1 X134.323 Y148.087 E12.03948
G1 X133.54 Y148.162 E12.05514
G1 X132.96 Y148.19 E12.06669
G1 X132.096 Y148.21 E12.0839
G1 X103.061 Y148.209 E12.66187
G1 X102.222 Y148.197 E12.67858
G1 X101.496 Y148.164 E12.69304
G1 X100.835 Y148.104 E12.70626
G1 X100.393 Y148.049 E12.71512
G1 X99.489 Y147.895 E12.73338
G1 X99.111 Y147.813 E12.74108
G1 X98.326 Y147.609 E12.75722
G1 X97.839 Y147.462 E12.76735
G1 X96.884 Y147.122 E12.78753
G1 X96.553 Y146.985 E12.79466
G1 X95.852 Y146.663 E12.81001
G1 X95.399 Y146.434 E12.82012
G1 X94.525 Y145.937 E12.84013
G1 X94.209 Y145.736 E12.84759
G1 X93.537 Y145.27 E12.86387
G1 X93.129 Y144.962 E12.87404
G1 X92.379 Y144.337 E12.89348
G1 X92.125 Y144.104 E12.90034
G1 X91.618 Y143.605 E12.9145
G1 X91.326 Y143.297 E12.92295
G1 X90.858 Y142.768 E12.93701
