;FLAVOR:Marlin
M117 Time Left 0h03m13s
;TIME:193
;Filament used: 0.149645m
;Layer height: 0.28
;MINX:86.975
;MINY:102.975
;MINZ:0.28
;MAXX:148.025
;MAXY:132.025
;MAXZ:3.92
;POSTPROCESSED
;Generated with Cura_SteamEngine 5.2.1
M140 S60
M105
M190 S60
M104 S205
M105
M109 S205
M82 ;absolute extrusion mode
; Ender 3 Custom Start G-code
G92 E0 ; Reset Extruder
G28 ; Home all axes
G1 Z2.0 F3000 ; Move Z Axis up little to prevent scratching of Heat Bed
G1 X0.1 Y20 Z0.3 F5000.0 ; Move to start position
G1 X0.1 Y200.0 Z0.3 F1500.0 E15 ; Draw the first line
G1 X0.4 Y200.0 Z0.3 F5000.0 ; Move to side a little
G1 X0.4 Y20 Z0.3 F1500.0 E30 ; Draw the second line
G92 E0 ; Reset Extruder
G1 Z2.0 F3000 ; Move Z Axis up little to prevent scratching of Heat Bed
G1 X5 Y20 Z0.3 F5000.0 ; Move over to prevent blob squish
G92 E0
G92 E0
G1 F2700 E-6
;LAYER_COUNT:14
;LAYER:0
M107
M204 S500
M205 X5 Y5
G0 F7500 X90.865 Y111.426 Z0.28
M205 X8 Y8
;TYPE:SKIRT
G1 F2700 E0
G1 F1500 X91.602 Y110.87 E0.04365
G1 X92.385 Y110.379 E0.08734
G1 X93.207 Y109.957 E0.13102
G1 X94.062 Y109.609 E0.17467
G1 X94.945 Y109.335 E0.21838
G1 X95.668 Y109.172 E0.25342
G1 X97.914 Y108.745 E0.3615
G1 X100.447 Y108.196 E0.48404
G1 X102.846 Y107.607 E0.60082
G1 X105.299 Y106.927 E0.72117
G1 X107.725 Y106.182 E0.84115
G1 X110.109 Y105.374 E0.96015
G1 X113.22 Y104.207 E1.11724
G1 X114.126 Y103.849 E1.1633
G1 X114.746 Y103.626 E1.19445
G1 X115.062 Y103.523 E1.21016
G1 X115.952 Y103.275 E1.25384
G1 X116.86 Y103.104 E1.29752
G1 X118.149 Y102.999 E1.35866
G1 X119.211 Y102.977 E1.40888
G1 X136.643 Y102.975 E2.23302
G1 X137.494 Y102.986 E2.27326
G1 X138.416 Y103.039 E2.31692
G1 X139.331 Y103.172 E2.36063
G1 X140.23 Y103.383 E2.40429
G1 X141.108 Y103.672 E2.44799
G1 X141.957 Y104.035 E2.49164
G1 X142.772 Y104.47 E2.53532
G1 X143.547 Y104.974 E2.57902
G1 X144.274 Y105.543 E2.62267
G1 X144.95 Y106.173 E2.66636
G1 X145.569 Y106.859 E2.71004
G1 X146.126 Y107.596 E2.75371
G1 X146.618 Y108.378 E2.79739
G1 X147.04 Y109.2 E2.84108
G1 X147.389 Y110.056 E2.88478
G1 X147.663 Y110.938 E2.92845
G1 X147.86 Y111.841 E2.97214
G1 X147.978 Y112.757 E3.01581
G1 X148.012 Y113.357 E3.04422
G1 X148.025 Y114.047 E3.07684
G1 X148.016 Y115.412 E3.14138
G1 X147.97 Y116.335 E3.18507
G1 X147.844 Y117.25 E3.22874
G1 X147.64 Y118.151 E3.27241
G1 X147.358 Y119.031 E3.3161
G1 X147.002 Y119.884 E3.3598
G1 X146.573 Y120.702 E3.40347
G1 X146.075 Y121.48 E3.44714
G1 X145.511 Y122.212 E3.49083
G1 X144.887 Y122.893 E3.53449
G1 X144.205 Y123.517 E3.5782
G1 X143.473 Y124.08 E3.62186
G1 X142.694 Y124.578 E3.66557
G1 X141.876 Y125.006 E3.70921
G1 X141.023 Y125.362 E3.75291
G1 X139.741 Y125.744 E3.81616
G1 X138.765 Y125.969 E3.86351
G1 X136.308 Y126.573 E3.98313
G1 X133.847 Y127.252 E4.10382
G1 X131.426 Y127.995 E4.22355
G1 X129.048 Y128.799 E4.34223
G1 X126.663 Y129.681 E4.46245
G1 X124.319 Y130.624 E4.5819
G1 X123.309 Y131.052 E4.63376
G1 X122.076 Y131.487 E4.69557
G1 X121.803 Y131.565 E4.70899
G1 X120.904 Y131.78 E4.75269
G1 X119.797 Y131.936 E4.80555
G1 X119.453 Y131.966 E4.82187
G1 X118.729 Y132.004 E4.85615
G1 X117.527 Y132.025 E4.91298
G1 X98.204 Y132.024 E5.82652
G1 X97.506 Y132.014 E5.85952
G1 X96.584 Y131.961 E5.90319
G1 X95.669 Y131.828 E5.9469
G1 X94.77 Y131.617 E5.99056
G1 X93.892 Y131.328 E6.03426
G1 X93.043 Y130.965 E6.07791
G1 X92.228 Y130.53 E6.12159
G1 X91.453 Y130.026 E6.16529
G1 X90.726 Y129.457 E6.20894
G1 X90.05 Y128.827 E6.25262
G1 X89.431 Y128.141 E6.29631
G1 X88.874 Y127.404 E6.33998
G1 X88.382 Y126.622 E6.38366
G1 X87.96 Y125.8 E6.42735
G1 X87.611 Y124.944 E6.47105
G1 X87.337 Y124.062 E6.51471
G1 X87.14 Y123.159 E6.55841
G1 X87.022 Y122.243 E6.60207
G1 X86.988 Y121.626 E6.63129
G1 X86.975 Y121.004 E6.6607
G1 X86.976 Y120.166 E6.70032
G1 X86.986 Y119.499 E6.73186
G1 X87.04 Y118.577 E6.77552
G1 X87.173 Y117.662 E6.81923
G1 X87.385 Y116.763 E6.8629
G1 X87.674 Y115.886 E6.90656
G1 X88.038 Y115.036 E6.95027
G1 X88.474 Y114.222 E6.99393
G1 X88.978 Y113.448 E7.0376
G1 X89.548 Y112.72 E7.08131
G1 X90.178 Y112.045 E7.12496
G1 X90.865 Y111.426 E7.16868
M205 X5 Y5
G0 F7500 X91.301 Y111.652
M205 X8 Y8
G1 F1500 X92.033 Y111.122 E7.2114
G1 X92.809 Y110.658 E7.25415
G1 X93.623 Y110.264 E7.2969
G1 X94.469 Y109.945 E7.33965
G1 X95.752 Y109.614 E7.40229
G1 X98.012 Y109.185 E7.51105
G1 X100.549 Y108.635 E7.63378
G1 X102.941 Y108.047 E7.75023
G1 X105.433 Y107.357 E7.87248
G1 X107.859 Y106.611 E7.99247
G1 X110.259 Y105.798 E8.11227
G1 X113.386 Y104.625 E8.27017
G1 X114.292 Y104.267 E8.31622
G1 X114.885 Y104.053 E8.34603
G1 X115.201 Y103.95 E8.36174
G1 X116.072 Y103.708 E8.40448
G1 X116.962 Y103.544 E8.44726
G1 X118.158 Y103.449 E8.50398
G1 X119.432 Y103.425 E8.56423
G1 X136.643 Y103.425 E9.37791
G1 X137.487 Y103.436 E9.41782
G1 X138.39 Y103.489 E9.46058
G1 X139.285 Y103.621 E9.50336
G1 X140.164 Y103.832 E9.54609
G1 X141.021 Y104.12 E9.58884
G1 X141.849 Y104.483 E9.63158
G1 X142.643 Y104.917 E9.67436
G1 X143.394 Y105.419 E9.71706
G1 X144.099 Y105.986 E9.75984
G1 X144.75 Y106.613 E9.80257
G1 X145.344 Y107.295 E9.84533
G1 X145.875 Y108.027 E9.88808
G1 X146.339 Y108.803 E9.93082
G1 X146.733 Y109.617 E9.97358
G1 X147.053 Y110.463 E10.01634
G1 X147.298 Y111.333 E10.05907
G1 X147.464 Y112.222 E10.10183
G1 X147.562 Y113.37 E10.1563
G1 X147.575 Y114.044 E10.18817
G1 X147.566 Y115.409 E10.25271
G1 X147.52 Y116.312 E10.29545
G1 X147.394 Y117.208 E10.33823
G1 X147.19 Y118.089 E10.38098
G1 X146.909 Y118.948 E10.42371
G1 X146.553 Y119.779 E10.46645
G1 X146.125 Y120.576 E10.50922
G1 X145.628 Y121.331 E10.55196
G1 X145.067 Y122.04 E10.5947
G1 X144.445 Y122.696 E10.63744
G1 X143.767 Y123.295 E10.68021
G1 X143.039 Y123.832 E10.72298
G1 X142.267 Y124.302 E10.76571
G1 X141.456 Y124.702 E10.80846
G1 X140.613 Y125.029 E10.85121
G1 X139.64 Y125.305 E10.89902
G1 X138.699 Y125.522 E10.94468
G1 X136.191 Y126.139 E11.06679
G1 X133.719 Y126.82 E11.18801
G1 X131.302 Y127.563 E11.30755
G1 X128.891 Y128.378 E11.42788
G1 X126.512 Y129.257 E11.54778
G1 X124.086 Y130.233 E11.67141
G1 X123.133 Y130.637 E11.72034
G1 X121.952 Y131.055 E11.77957
G1 X121.679 Y131.133 E11.793
G1 X120.799 Y131.342 E11.83576
G1 X119.758 Y131.487 E11.88545
G1 X119.414 Y131.517 E11.90177
G1 X118.72 Y131.554 E11.93463
G1 X117.527 Y131.575 E11.99104
G1 X98.211 Y131.574 E12.90425
G1 X97.513 Y131.564 E12.93725
G1 X96.61 Y131.511 E12.98002
G1 X95.715 Y131.379 E13.02279
G1 X94.836 Y131.168 E13.06552
G1 X93.979 Y130.88 E13.10827
G1 X93.151 Y130.517 E13.15101
G1 X92.357 Y130.083 E13.19379
G1 X91.606 Y129.581 E13.2365
G1 X90.901 Y129.014 E13.27927
G1 X90.25 Y128.387 E13.322
G1 X89.656 Y127.705 E13.36476
G1 X89.125 Y126.973 E13.40751
G1 X88.661 Y126.197 E13.45026
G1 X88.267 Y125.383 E13.49301
G1 X87.947 Y124.537 E13.53577
G1 X87.702 Y123.667 E13.5785
G1 X87.536 Y122.778 E13.62126
G1 X87.438 Y121.614 E13.67648
G1 X87.425 Y121.004 E13.70533
G1 X87.426 Y120.173 E13.74462
G1 X87.436 Y119.506 E13.77616
G1 X87.49 Y118.603 E13.81892
G1 X87.623 Y117.709 E13.86165
G1 X87.834 Y116.83 E13.90439
G1 X88.123 Y115.973 E13.94715
G1 X88.486 Y115.144 E13.98993
G1 X88.92 Y114.352 E14.03263
G1 X89.423 Y113.6 E14.0754
G1 X89.991 Y112.896 E14.11817
G1 X90.618 Y112.245 E14.1609
G1 X91.301 Y111.652 E14.20366
M205 X5 Y5
G1 F2700 E8.20366
;MESH:test_clamp (Meshed).stl
G0 F7500 X98.089 Y118.985
G0 X98.089 Y120.089
G0 X116.794 Y120.475
G1 F2700 E14.20366
G0 F7500 X98.3 Y120.3
M205 X8 Y8
;TYPE:WALL-INNER
G1 F1875 X98.3 Y120.7 E14.22047
G1 F1861 X116.648 Y120.697 E14.99732
G1 F1712.3 X116.955 Y120.665 E15.01152
G1 F1546.4 X117.325 Y120.65 E15.03039
G1 F1500 X118.465 Y120.65 E15.09027
G1 X118.719 Y120.632 E15.10365
G1 X119.138 Y120.461 E15.12742
G1 X119.3 Y120.321 E15.13867
G1 X119.488 Y120.074 E15.15497
G1 X119.65 Y119.683 E15.17721
G1 X119.651 Y117.442 E15.29493
G1 X119.668 Y117.185 E15.30846
G1 X119.739 Y116.782 E15.32995
G1 X119.884 Y116.371 E15.35285
G1 X120.042 Y116.058 E15.37126
G1 X120.234 Y115.762 E15.3898
G1 X120.453 Y115.518 E15.40702
G1 X120.751 Y115.245 E15.42825
G1 X121.105 Y115.015 E15.45043
G1 X121.443 Y114.854 E15.47009
G1 F1515.2 X121.74 Y114.757 E15.48634
G1 F1670.4 X122.185 Y114.713 E15.50744
G1 F1856.4 X122.438 Y114.7 E15.51819
G1 F1875 X136.7 Y114.7 E16.11754
G1 X136.7 Y114.5 E16.12594
G1 X136.7 Y114.3 E16.13435
G1 X122.425 Y114.301 E16.73424
G1 F1842.8 X122.072 Y114.308 E16.74934
G1 F1659.3 X121.672 Y114.345 E16.76841
G1 F1515.2 X121.233 Y114.351 E16.79125
G1 F1500 X118.498 Y114.35 E16.93492
G1 X118.406 Y114.406 E16.94058
G1 X118.351 Y114.498 E16.94621
G1 X118.35 Y118.593 E17.16132
G1 X118.213 Y118.989 E17.18333
G1 X117.099 Y120.103 E17.26609
G1 F1546.4 X116.869 Y120.239 E17.2797
G1 F1720.2 X116.575 Y120.3 E17.29346
G1 F1870.3 X98.3 Y120.3 E18.06337
M205 X5 Y5
G0 F7500 X98.075 Y120.075
M205 X8 Y8
;TYPE:WALL-OUTER
G1 F1500 X98.075 Y120.925 E18.10355
G1 X118.474 Y120.925 E19.06796
G1 X118.771 Y120.905 E19.08203
G1 X119.041 Y120.817 E19.09546
G1 X119.292 Y120.692 E19.10872
G1 X119.502 Y120.51 E19.12185
G1 X119.728 Y120.212 E19.13954
G1 X119.877 Y119.856 E19.15778
G1 X119.925 Y119.616 E19.16935
G1 X119.925 Y117.461 E19.27123
G1 X119.942 Y117.203 E19.28346
G1 X120 Y116.883 E19.29883
G1 X120.11 Y116.542 E19.31577
G1 X120.247 Y116.253 E19.33089
G1 X120.436 Y115.957 E19.3475
G1 X120.691 Y115.669 E19.36568
G1 X120.947 Y115.445 E19.38177
G1 X121.18 Y115.289 E19.39502
G1 X121.533 Y115.114 E19.41365
G1 F1503.3 X121.828 Y115.014 E19.42834
G1 X122.156 Y114.947 E19.44413
G1 F1500 X122.453 Y114.925 E19.45821
G1 X136.925 Y114.925 E20.14241
G1 X136.925 Y114.5 E20.1625
G1 X136.925 Y114.075 E20.1826
G1 X118.457 Y114.075 E21.05571
G1 X118.208 Y114.208 E21.06906
G1 X118.076 Y114.458 E21.08242
G1 X118.075 Y118.558 E21.27626
G1 X117.945 Y118.863 E21.29193
G1 X116.904 Y119.908 E21.36167
G1 X116.574 Y120.07 E21.37905
G1 X98.075 Y120.075 E22.25363
M205 X5 Y5
G0 F7500 X98.075 Y120.275
G0 X116.794 Y120.475
G0 X118.752 Y120.4
G0 X119.146 Y120.176
G0 X119.41 Y119.713
G0 X119.461 Y116.995
G0 X119.91 Y115.958
G0 X120.395 Y115.343
G0 X121.113 Y114.843
G0 X121.034 Y114.683
M205 X8 Y8
;TYPE:SKIN
G1 F1500 X118.683 Y114.683 E22.36478
G1 X118.683 Y116.095 E22.43153
G1 F1298.1 X118.753 Y116.662 E22.46275
G1 F1186.3 X118.73 Y117.19 E22.49434
G1 F1236.3 X118.727 Y118.655 E22.57838
G1 F1344.6 X118.571 Y118.987 E22.59772
G1 F1486.8 X118.425 Y119.243 E22.61178
G1 F1500 X117.354 Y120.317 E22.68349
G1 X118.611 Y120.318 E22.74291
G1 X118.902 Y120.224 E22.75737
G1 X119.198 Y119.903 E22.77802
G1 X119.318 Y119.619 E22.79259
G1 F1486.8 X119.314 Y119.11 E22.81687
G1 F1344.6 X119.27 Y118.702 E22.83851
G1 F1236.3 X119.274 Y117.235 E22.92266
G1 F1266.4 X119.337 Y116.733 E22.951
G1 F1391.8 X119.713 Y115.966 E22.99452
G1 F1500 X119.975 Y115.552 E23.01768
G1 X120.198 Y115.302 E23.03352
G1 X120.514 Y115.012 E23.0538
G1 X120.858 Y114.773 E23.0736
G1 X121.034 Y114.683 E23.08295
M205 X5 Y5
G0 F7500 X120.139 Y115.048
M205 X8 Y8
G1 F1500 X119.998 Y114.907 E23.09238
M205 X5 Y5
G0 F7500 X119.829 Y115.375
M205 X8 Y8
G1 F1500 X119.362 Y114.907 E23.12363
M205 X5 Y5
G0 F7500 X118.907 Y115.088
M205 X8 Y8
G1 F1500 X119.578 Y115.759 E23.1685
M205 X5 Y5
G0 F7500 X119.358 Y116.176
M205 X8 Y8
G1 F1500 X118.907 Y115.725 E23.19865
M205 X5 Y5
G0 F7500 X118.986 Y116.44
M205 X8 Y8
G1 F1500 X119.11 Y116.565 E23.20697
M205 X5 Y5
G0 F7500 X119.609 Y116.696
G0 X119.44 Y117.489
G0 X119.41 Y119.713
G0 X119.146 Y120.176
G0 X118.678 Y120.424
G0 X117.057 Y120.411
G0 X118.308 Y119.102
G0 X118.455 Y118.759
G0 X118.887 Y118.887
M205 X8 Y8
G1 F1500 X119.078 Y119.078 E23.21974
M205 X5 Y5
G0 F7500 X118.654 Y119.291
M205 X8 Y8
G1 F1500 X119.047 Y119.683 E23.24599
M205 X5 Y5
G0 F7500 X118.759 Y120.032
M205 X8 Y8
G1 F1500 X118.359 Y119.631 E23.27276
M205 X5 Y5
G0 F7500 X118.04 Y119.95
M205 X8 Y8
G1 F1500 X118.182 Y120.091 E23.28223
M205 X5 Y5
;MESH:NONMESH
G0 F600 X118.182 Y120.091 Z0.56
G0 F7500 X118.182 Y120.5
G0 X116.794 Y120.475
G0 X98.225 Y120.225
M117 Time Left 0h02m44s
;TIME_ELAPSED:28.367097
;LAYER:1
M106 S85
M205 X14 Y14
;TYPE:WALL-INNER
;MESH:test_clamp (Meshed).stl
G1 F1344.7 X98.225 Y120.775 E23.31568
G1 F1335 X116.674 Y120.771 E24.44599
G1 F1398.1 X117.328 Y120.798 E24.48428
G1 F1479.2 X118.618 Y120.8 E24.55561
G1 X119.078 Y120.678 E24.58193
G1 X119.487 Y120.366 E24.61037
G1 X119.7 Y119.994 E24.63408
G1 X119.8 Y119.62 E24.65548
G1 X119.801 Y117.452 E24.77536
G1 X119.829 Y117.107 E24.7945
G1 X119.889 Y116.799 E24.81185
G1 X120.022 Y116.43 E24.83354
G1 X120.138 Y116.192 E24.84818
G1 X120.353 Y115.855 E24.87029
G1 X120.621 Y115.561 E24.89228
G1 X120.896 Y115.327 E24.91225
G1 X121.192 Y115.138 E24.93167
G1 X121.429 Y115.022 E24.94626
G1 F1441.7 X121.843 Y114.867 E24.97134
G1 F1352.1 X122.1 Y114.796 E24.98747
G1 F1323.1 X122.453 Y114.776 E25.00933
G1 F1344.7 X128.16 Y114.775 E25.35645
G1 X128.16 Y114.5 E25.37318
G1 X128.16 Y114.225 E25.3899
G1 X122.436 Y114.225 E25.73806
G1 F1323.1 X122.046 Y114.234 E25.76218
G1 F1379.8 X121.633 Y114.202 E25.78673
G1 F1473.3 X118.475 Y114.2 E25.96205
G1 F1479.2 X118.298 Y114.298 E25.97324
G1 X118.2 Y114.475 E25.98443
G1 X118.2 Y118.597 E26.21235
G1 X118.062 Y118.931 E26.23234
G1 X116.996 Y119.996 E26.31566
G1 F1403.4 X116.616 Y120.225 E26.34152
G1 F1339.8 X98.225 Y120.225 E27.46421
M205 X12.5 Y12.5
G0 F8250 X97.925 Y119.925
M205 X14 Y14
;TYPE:WALL-OUTER
G1 F1232.6 X97.925 Y121.075 E27.52144
G1 X118.485 Y121.075 E28.54461
G1 X118.909 Y121.019 E28.5659
G1 X119.288 Y120.861 E28.58633
G1 X119.614 Y120.613 E28.60672
G1 X119.861 Y120.289 E28.62699
G1 X120.019 Y119.909 E28.64747
G1 X120.075 Y119.629 E28.66168
G1 X120.075 Y117.47 E28.76913
G1 X120.092 Y117.213 E28.78194
G1 X120.149 Y116.902 E28.79768
G1 X120.269 Y116.55 E28.81619
G1 X120.385 Y116.312 E28.82936
G1 X120.592 Y116.001 E28.84795
G1 X120.803 Y115.767 E28.86363
G1 X121.048 Y115.556 E28.87973
G1 X121.312 Y115.385 E28.89538
G1 X121.55 Y115.269 E28.90856
G1 X121.898 Y115.151 E28.92684
G1 X122.213 Y115.092 E28.94279
G1 X122.473 Y115.075 E28.95576
G1 X128.46 Y115.075 E29.2537
G1 X128.46 Y114.5 E29.28232
G1 X128.46 Y113.925 E29.31093
G1 X118.434 Y113.925 E29.80988
G1 X118.298 Y113.967 E29.81697
G1 X118.1 Y114.1 E29.82884
G1 X117.967 Y114.298 E29.84071
G1 X117.925 Y114.434 E29.84779
G1 X117.925 Y118.559 E30.05307
G1 X117.843 Y118.758 E30.06378
G1 X116.801 Y119.801 E30.13715
G1 X116.562 Y119.925 E30.15055
G1 X97.925 Y119.925 E31.07803
M205 X12.5 Y12.5
G0 F8250 X97.925 Y120.125
G1 F2700 E25.07803
G0 F8250 X98.395 Y120.395
G0 X116.857 Y120.361
G0 X118.361 Y118.857
G0 X118.362 Y115.606
G0 X118.45 Y114.45
G0 X121.636 Y114.416
G0 X122.085 Y114.515
G0 X121.366 Y114.886
G1 F2700 E31.07803
G0 F8250 X121.297 Y114.718
M205 X14 Y14
;TYPE:SKIN
G1 F1150.5 X121.718 Y114.553 E31.10054
G1 X121.625 Y114.538 E31.10522
G1 X118.568 Y114.533 E31.25736
G1 X118.533 Y114.568 E31.25982
G1 X118.53 Y118.648 E31.46286
G1 X118.331 Y119.131 E31.48886
G1 X117.239 Y120.225 E31.56578
G1 X116.926 Y120.431 E31.58443
G1 X117.338 Y120.466 E31.60501
G1 X118.661 Y120.468 E31.67085
G1 X118.985 Y120.331 E31.68835
G1 X119.232 Y120.145 E31.70374
G1 X119.424 Y119.812 E31.72287
G1 X119.468 Y119.458 E31.74062
G1 X119.469 Y117.425 E31.8418
G1 X119.5 Y117.057 E31.86018
G1 X119.592 Y116.64 E31.88143
G1 X119.727 Y116.274 E31.90084
G1 X119.893 Y115.95 E31.91896
G1 X120.153 Y115.576 E31.94163
G1 X120.385 Y115.326 E31.9586
G1 X120.589 Y115.143 E31.97224
G1 X120.943 Y114.897 E31.99369
G1 X121.297 Y114.718 E32.01343
M205 X12.5 Y12.5
G0 F8250 X121.366 Y114.886
G0 X122.085 Y114.515
G0 X121.684 Y114.457
G0 X119.435 Y114.35
G0 X119.435 Y114.758
M205 X14 Y14
G1 F1150.5 X118.756 Y115.437 E32.06122
M205 X12.5 Y12.5
G0 F8250 X118.755 Y116.074
M205 X14 Y14
G1 F1150.5 X120.07 Y114.759 E32.15377
M205 X12.5 Y12.5
G0 F8250 X120.62 Y114.846
M205 X14 Y14
G1 F1150.5 X120.705 Y114.76 E32.15978
M205 X12.5 Y12.5
G0 F8250 X120.705 Y114.351
G0 X121.786 Y114.438
G0 X122.085 Y114.515
G0 X120.819 Y115.156
G0 X120.183 Y115.841
G0 X119.849 Y115.616
M205 X14 Y14
G1 F1150.5 X118.755 Y116.711 E32.23681
M205 X12.5 Y12.5
G0 F8250 X119.331 Y116.771
M205 X14 Y14
G1 F1150.5 X118.753 Y117.349 E32.27749
M205 X12.5 Y12.5
G0 F8250 X119.243 Y117.495
M205 X14 Y14
